packages/match-logos/color/svg/hubspot.svg

<svg fill="none" height="40" viewBox="0 0 109 40" width="109" xmlns="http://www.w3.org/2000/svg" xmlns:xlink="http://www.w3.org/1999/xlink"><clipPath id="a"><path d="m0 0h108.463v40h-108.463z"/></clipPath><g clip-path="url(#a)"><g fill="#485661"><path d="m11.4026 17.7983h-7.61984v-7.7729h-3.78276v19.5145h3.78276v-8.1405h7.61984v8.1405h3.7828v-19.5145h-3.7828z"/><path d="m40.8724 14.3358c-1.6961 0-3.0033.5721-4.0602 1.8292v-6.48577h-3.3108v9.85667c0 3.3151.0286 3.7184.5006 5.1485.4619 1.4235 1.3613 2.6649 2.57 3.5472 1.2088.8824 2.6652 1.3607 4.1617 1.3668 4.1717 0 7.3982-3.3422 7.3982-7.6284 0-4.2047-3.2551-7.6342-7.2595-7.6342zm-.1945 12.0019c-2.2253 0-4.0888-1.9722-4.0888-4.372 0-2.4313 1.8363-4.372 4.0888-4.372 2.1696 0 4.033 2.0022 4.033 4.3434 0 2.3998-1.8363 4.4006-4.033 4.4006z"/><path d="m71.4863 14.4275c-1.4964.006-2.9527.4843-4.1612 1.3667-1.2086.8824-2.1077 2.1239-2.5691 3.5473-.4734 1.4302-.5006 1.8292-.5006 5.1486v9.8523h3.3094v-6.4857c1.0569 1.2571 2.364 1.8277 4.0602 1.8277 4.0044 0 7.2595-3.4324 7.2595-7.6284 0-4.2862-3.2265-7.6285-7.3982-7.6285zm-.0558 12.0005c-2.2525 0-4.0888-1.9436-4.0888-4.372 0-2.3998 1.8592-4.372 4.0888-4.372 2.1967 0 4.033 2.0022 4.033 4.4006 0 2.3426-1.8635 4.3434-4.033 4.3434z"/><path d="m56.7371 17.7297-1.6862-.5721c-.8967-.3175-1.4673-1.0125-1.4673-1.8806 0-1.1585.9782-1.9694 2.4742-1.9694 1.1441 0 1.8491.3476 2.8831 1.3615l.3805.3762 2.4741-2.5743c-1.9307-2.2883-3.0991-2.86031-5.8464-2.86031-3.5626 0-6.1497 2.45991-6.1497 5.84651 0 2.6343 1.4959 4.5765 4.2976 5.5289l1.4402.4777c2.0937.7237 2.6644 1.2728 2.6644 2.4313 0 1.3314-1.087 2.2282-2.6644 2.2282-1.496 0-2.5843-.6365-3.6455-2.1453l-2.4742 2.6916c1.9851 2.5185 3.2894 3.1835 6.2012 3.1835 3.6712 0 6.3642-2.5471 6.3642-6.0496.0043-3.0061-1.5732-4.8296-5.2458-6.0738z"/><path d="m107.186 26.4321c-2.225 0-2.922-.5863-2.922-2.5185v-5.5919h3.311v-3.2207h-3.311v-4.1617l-3.309 1.7276v11.2467c0 4.1575 1.586 5.9438 5.257 5.9438.443 0 .666-.0286 1.363-.0587l.888-3.5139c-.419.0965-.847.1459-1.277.1473z"/><path d="m27.3632 23.3845c.0002.4017-.0788.7996-.2325 1.1709-.1537.3712-.379.7085-.6631.9926s-.6214.5094-.9926.6631c-.3713.1537-.7691.2327-1.1709.2325h-.1631c-.8113 0-1.5894-.3223-2.1631-.896s-.896-1.3518-.896-2.1631v-8.581h-3.4438v8.6668c0 1.6226.6446 3.1788 1.792 4.3262s2.7036 1.792 4.3262 1.792h.8181c1.6226 0 3.1788-.6446 4.3262-1.792s1.792-2.7036 1.792-4.3262v-8.6668h-3.3294z"/></g><path d="m90.9536 13.1002v-4.24467c.7957-.22048 1.4869-.71709 1.9498-1.40085.4629-.68377.6673-1.51002.5764-2.33073s-.471-1.58224-1.0723-2.14817-1.3844-.89928-2.2091-.94033-1.6371.21289-2.2916.71632-1.1084 1.22346-1.2803 2.03109c-.1719.80762-.0507 1.65008.342 2.37643.3928.72636 1.0313 1.28915 1.8012 1.58755v4.35336c-1.1709.1381-2.3037.5029-3.3351 1.0741l-11.8875-8.93849c.3433-.84542.3711-1.78614.0783-2.65034-.2929-.8642-.8868-1.594229-1.6734-2.056758-.7866-.4625279-1.7133-.6266938-2.6109-.4625159-.8975.1641779-1.7061.6457439-2.278 1.3567539s-.869 1.60401-.837 2.51592c.032.91192.391 1.78189 1.0113 2.45105.6204.66915 1.4608 1.09283 2.3677 1.19366.9068.10083 1.8197-.12791 2.5719-.64446l11.4198 8.58098c-1.0225.9584-1.8104 2.1395-2.3026 3.4516-.4922 1.3122-.6754 2.7202-.5354 4.1146s.5994 2.7379 1.3426 3.926c.7432 1.1882 1.7501 2.1891 2.9427 2.9251l-2.8302 4.505c-.1064-.0124-.2133-.0191-.3204-.02-.6309-.002-1.2439.2094-1.7395.6-.4955.3905-.8444.9371-.9899 1.551-.1456.6139-.0792 1.259.1883 1.8304s.7204 1.0355 1.2851 1.3169c.5646.2815 1.2079.3636 1.8252.2332s1.1723-.4658 1.5748-.9516c.4026-.4858.629-1.0935.6424-1.7243.0135-.6308-.1868-1.2475-.5682-1.7501l2.9261-4.6566c1.2135.3948 2.4961.5313 3.7655.4006s2.4974-.5256 3.605-1.1594c1.1076-.6337 2.0703-1.4923 2.8261-2.5204.7559-1.0281 1.2882-2.2031 1.5627-3.4493.2746-1.2462.2852-2.5361.0313-3.7866-.2538-1.2506-.7667-2.4342-1.5054-3.4747-.7388-1.0405-1.6872-1.9148-2.7842-2.5668-1.0969-.652-2.3182-1.0671-3.5852-1.2188zm-.9611 14.4446c-1.0571 0-2.0904-.3135-2.9693-.9007-.8789-.5873-1.5639-1.422-1.9684-2.3985-.4045-.9766-.5103-2.0512-.3041-3.088.2062-1.0367.7152-1.989 1.4627-2.7364.7474-.7475 1.6997-1.2565 2.7364-1.4627 1.0368-.2062 2.1114-.1004 3.0879.3041.9766.4046 1.8113 1.0896 2.3986 1.9685.5872.8789.9007 1.9122.9007 2.9692-.0008 1.417-.5642 2.7756-1.5664 3.7773-1.0022 1.0016-2.3612 1.5643-3.7781 1.5643z" fill="#ee6e23"/></g></svg>

<svg width="109" height="40" viewBox="0 0 109 40" fill="none" xmlns="http://www.w3.org/2000/svg">
<g clip-path="url(#clip0)">
<path d="M11.4026 17.7983H3.78276V10.0254H0V29.5399H3.78276V21.3994H11.4026V29.5399H15.1854V10.0254H11.4026V17.7983Z" fill="#485661"/>
<path d="M40.8724 14.3358C39.1763 14.3358 37.8691 14.9079 36.8122 16.165V9.67923H33.5014V19.5359C33.5014 22.851 33.53 23.2543 34.002 24.6844C34.4639 26.1079 35.3633 27.3493 36.572 28.2316C37.7808 29.114 39.2372 29.5923 40.7337 29.5984C44.9054 29.5984 48.1319 26.2562 48.1319 21.97C48.1319 17.7653 44.8768 14.3358 40.8724 14.3358ZM40.6779 26.3377C38.4526 26.3377 36.5891 24.3655 36.5891 21.9657C36.5891 19.5344 38.4254 17.5937 40.6779 17.5937C42.8475 17.5937 44.7109 19.5959 44.7109 21.9371C44.7109 24.3369 42.8746 26.3377 40.6779 26.3377Z" fill="#485661"/>
<path d="M71.4863 14.4275C69.9899 14.4335 68.5336 14.9118 67.3251 15.7942C66.1165 16.6766 65.2174 17.9181 64.756 19.3415C64.2826 20.7717 64.2554 21.1707 64.2554 24.4901V34.3424H67.5648V27.8567C68.6217 29.1138 69.9288 29.6844 71.625 29.6844C75.6294 29.6844 78.8845 26.252 78.8845 22.056C78.8845 17.7698 75.658 14.4275 71.4863 14.4275ZM71.4305 26.428C69.178 26.428 67.3417 24.4844 67.3417 22.056C67.3417 19.6562 69.2009 17.684 71.4305 17.684C73.6272 17.684 75.4635 19.6862 75.4635 22.0846C75.4635 24.4272 73.6 26.428 71.4305 26.428Z" fill="#485661"/>
<path d="M56.7371 17.7297L55.0509 17.1576C54.1542 16.8401 53.5836 16.1451 53.5836 15.277C53.5836 14.1185 54.5618 13.3076 56.0578 13.3076C57.2019 13.3076 57.9069 13.6552 58.9409 14.6691L59.3214 15.0453L61.7955 12.471C59.8648 10.1827 58.6964 9.61069 55.9491 9.61069C52.3865 9.61069 49.7994 12.0706 49.7994 15.4572C49.7994 18.0915 51.2953 20.0337 54.097 20.9861L55.5372 21.4638C57.6309 22.1875 58.2016 22.7366 58.2016 23.8951C58.2016 25.2265 57.1146 26.1233 55.5372 26.1233C54.0412 26.1233 52.9529 25.4868 51.8917 23.978L49.4175 26.6696C51.4026 29.1881 52.7069 29.8531 55.6187 29.8531C59.2899 29.8531 61.9829 27.306 61.9829 23.8035C61.9872 20.7974 60.4097 18.9739 56.7371 17.7297Z" fill="#485661"/>
<path d="M107.186 26.4321C104.961 26.4321 104.264 25.8458 104.264 23.9136V18.3217H107.575V15.101H104.264V10.9393L100.955 12.6669V23.9136C100.955 28.0711 102.541 29.8574 106.212 29.8574C106.655 29.8574 106.878 29.8288 107.575 29.7987L108.463 26.2848C108.044 26.3813 107.616 26.4307 107.186 26.4321Z" fill="#485661"/>
<path d="M27.3632 23.3845C27.3634 23.7862 27.2844 24.1841 27.1307 24.5554C26.977 24.9266 26.7517 25.2639 26.4676 25.548C26.1835 25.8321 25.8462 26.0574 25.475 26.2111C25.1037 26.3648 24.7059 26.4438 24.3041 26.4436H24.141C23.3297 26.4436 22.5516 26.1213 21.9779 25.5476C21.4042 24.9739 21.0819 24.1958 21.0819 23.3845V14.8035H17.6381V23.4703C17.6381 25.0929 18.2827 26.6491 19.4301 27.7965C20.5775 28.9439 22.1337 29.5885 23.7563 29.5885H24.5744C26.197 29.5885 27.7532 28.9439 28.9006 27.7965C30.048 26.6491 30.6926 25.0929 30.6926 23.4703V14.8035H27.3632V23.3845Z" fill="#485661"/>
<path d="M90.9536 13.1002V8.85553C91.7493 8.63505 92.4405 8.13844 92.9034 7.45468C93.3663 6.77091 93.5707 5.94466 93.4798 5.12395C93.3889 4.30324 93.0088 3.54171 92.4075 2.97578C91.8062 2.40985 91.0231 2.0765 90.1984 2.03545C89.3737 1.9944 88.5613 2.24834 87.9068 2.75177C87.2523 3.2552 86.7984 3.97523 86.6265 4.78286C86.4546 5.59048 86.5758 6.43294 86.9685 7.15929C87.3613 7.88565 87.9998 8.44844 88.7697 8.74684V13.1002C87.5988 13.2383 86.466 13.6031 85.4346 14.1743L73.5471 5.23581C73.8904 4.39039 73.9182 3.44967 73.6254 2.58547C73.3325 1.72127 72.7386 0.991241 71.952 0.528712C71.1654 0.0661841 70.2387 -0.0979818 69.3411 0.0661961C68.4436 0.230374 67.635 0.71194 67.0631 1.42295C66.4912 2.13396 66.1941 3.02696 66.2261 3.93887C66.2581 4.85079 66.6171 5.72076 67.2374 6.38992C67.8578 7.05907 68.6982 7.48275 69.6051 7.58358C70.5119 7.68441 71.4248 7.45567 72.177 6.93912L83.5968 15.5201C82.5743 16.4785 81.7864 17.6596 81.2942 18.9717C80.802 20.2839 80.6188 21.6919 80.7588 23.0863C80.8988 24.4807 81.3582 25.8242 82.1014 27.0123C82.8446 28.2005 83.8515 29.2014 85.0441 29.9374L82.2139 34.4424C82.1075 34.43 82.0006 34.4233 81.8935 34.4224C81.2626 34.4204 80.6496 34.6318 80.154 35.0224C79.6585 35.4129 79.3096 35.9595 79.1641 36.5734C79.0185 37.1873 79.0849 37.8324 79.3524 38.4038C79.6199 38.9752 80.0728 39.4393 80.6375 39.7207C81.2021 40.0022 81.8454 40.0843 82.4627 39.9539C83.08 39.8235 83.635 39.4881 84.0375 39.0023C84.4401 38.5165 84.6665 37.9088 84.6799 37.278C84.6934 36.6472 84.4931 36.0305 84.1117 35.5279L87.0378 30.8713C88.2513 31.2661 89.5339 31.4026 90.8033 31.2719C92.0727 31.1412 93.3007 30.7463 94.4083 30.1125C95.5159 29.4788 96.4786 28.6202 97.2344 27.5921C97.9903 26.564 98.5226 25.389 98.7971 24.1428C99.0717 22.8966 99.0823 21.6067 98.8284 20.3562C98.5746 19.1056 98.0617 17.922 97.323 16.8815C96.5842 15.841 95.6358 14.9667 94.5388 14.3147C93.4419 13.6627 92.2206 13.2476 90.9536 13.0959V13.1002ZM89.9925 27.5448C88.9354 27.5448 87.9021 27.2313 87.0232 26.6441C86.1443 26.0568 85.4593 25.2221 85.0548 24.2456C84.6503 23.269 84.5445 22.1944 84.7507 21.1576C84.9569 20.1209 85.4659 19.1686 86.2134 18.4212C86.9608 17.6737 87.9131 17.1647 88.9498 16.9585C89.9866 16.7523 91.0612 16.8581 92.0377 17.2626C93.0143 17.6672 93.849 18.3522 94.4363 19.2311C95.0235 20.11 95.337 21.1433 95.337 22.2003C95.3362 23.6173 94.7728 24.9759 93.7706 25.9776C92.7684 26.9792 91.4094 27.5419 89.9925 27.5419V27.5448Z" fill="#EE6E23"/>
</g>
<defs>
<clipPath id="clip0">
<rect width="108.463" height="40" fill="white"/>
</clipPath>
</defs>
</svg>
